X:1
T:Sanctifying Power
T:Lelia Naylor Morris, 1908
T:Sanctifying Power
T:Public Domain
T:Public Domain
T:Public Domain
C:Lelia Naylor Morris, 1908
Z:Public Domain
%%score 1 ( 2 3 )
L:1/8
M:4/4
K:Ab
V:1 treble 
V:2 bass 
V:3 bass 
V:1
 [A,C][B,D] | [CE][CE][CE][DF] [CE]2 [CA][DB] | [Ec][EA][DF][DA] [CE]2 [Ec][Ec] | %3
w: 1.~There is|sanc- ti- fy- ing power, Like a|sweet, re- fresh- ing shower, Wait- ing|
w: 2.~I’m so|glad it reach- es me, All un-|wor- thy tho’ I be, O- ver-|
w: 3.~This God’s|will for you and me, That we|sanc- ti- fied should be, Dwell- ing|
w: 4.~Songs of|prais- es let us sing To our|bless- èd Lord and King For this|
 [Ed][Ed][EB][EB] [Ec]2 [EA]2 | [EB]6 [Ee][Ed] | [Ec][Ec][Ec][DB] [CA]2 [CE][CE] | %6
w: for each con- se- crat- ed|heart; Power to|cleanse us from all sin, Power to|
w: com- ing grace made free- ly|mine. Since the|Com- fort- er a- bides, And with-|
w: in this land of plen- teous-|ness. Fling your|doubts and fears a- side; Bold- ly|
w: great sal- va- tion rich and|free: Ev- ery|need- ed grace sup- plied, Ev- ery|
 [DF][FA][EG][DF] [CE]2 [A,C][B,D] | [CE][CE][Ed][Ec] [DB]2 [Ec]2 | [CA]6 ||"^Refrain" [DB]>[C=A] | %10
w: keep us pure with- in, Power for|ser- vice which He will im-|part.||
w: in my heart re- sides, I am|walk- ing in the light di-|vine.|I’m so|
w: cross the Jor- dan’s tide, And your|her- i- tage in Christ pos-|sess.||
w: long- ing sat- is- fied, Saved for|time and for e- ter- ni-|ty.||
 ([DB]4 [Fd]2) [Ec]>[DB] | ([CA]4 [Ec]2) [CE][CE] | [DF][DF][EF][EF] [=DB]2 [Dc]2 | %13
w: |||
w: glad, * I’m so|glad * For this|sav- ing, sanc- ti- fy- ing|
w: |||
w: |||
 [DB]6 [CA][DB] | [Ec][EA][FA][DF] [CE]2 [CA][DB] | [Ec][EA][FA][DF] [CE]2 [Ee]>[Ed] | %16
w: |||
w: power! Waves of|glo- ry o’er me roll, Peace a-|bides with- in my soul, I’m so|
w: |||
w: |||
 [Ec]2 [EA][FB] [Ec][Ec] [Ec]>[DB] | [CA]6 |] %18
w: ||
w: glad for this sanc- ti- fy- ing|power!|
w: ||
w: ||
V:2
 [A,,E,][A,,E,] | [A,,A,][A,,A,][A,,A,][A,,A,] [A,,A,]2 [A,,A,][A,,A,] | %2
w: ~ ~|~ ~ ~ ~ ~ ~ ~|
 [A,,A,][C,A,][D,A,][F,A,] A,2 A,A, | [G,B,][G,B,][E,G,][E,G,] [A,,A,]2 [C,A,]2 | %4
w: ~ ~ ~ ~ ~ ~ ~|~ ~ ~ ~ ~ ~|
 [E,G,]6 [E,G,][E,G,] | A,A,[E,G,][E,G,] [A,,E,]2 [A,,A,][A,,A,] | %6
w: ~ ~ ~|~ ~ ~ ~ ~ ~ ~|
 [D,A,][D,A,][D,A,][D,A,] [A,,A,]2 [A,,E,][A,,E,] | [A,,A,][A,,A,][B,,G,][C,A,] [E,G,]2 [E,G,]2 | %8
w: ~ ~ ~ ~ ~ ~ ~|~ ~ I’m so glad, hal-|
 [A,,A,]6 || z2 | z2 [E,G,]>[E,G,] [E,G,]2 [E,G,]>[E,G,] | E,E,F,G, A,2 [A,,A,][A,,A,] | %12
w: le-||lu- jah, I’m so glad||
 [D,A,][D,A,][C,=A,][C,A,] [B,,B,]2 [B,,_A,]2 | [E,G,]6 [A,,A,][A,,A,] | %14
w: ||
 [A,,A,][C,A,][D,A,][F,A,] A,2 [A,,A,][A,,A,] | [A,,A,][C,A,][D,A,][F,A,] A,2 [A,C]>[A,B,] | %16
w: ||
 A,2 [C,A,][D,A,] [E,A,][E,A,] [E,G,]>[E,G,] | [A,,E,]6 |] %18
w: ||
V:3
 x2 | x8 | x4 A,2 A,A, | x8 | x8 | A,A, x6 | x8 | x8 | x6 || x2 | x8 | A,,6 x2 | x8 | x8 | %14
w: ||~ ~ ~|||~ ~|||||||||
 x4 A,2 x2 | x4 A,2 x2 | A,2 x6 | x6 |] %18
w: ||||

